X: 789
T: Darby the Driver.
B:O'Neill's Music of Ireland
N:O'Neill's - 789
Z:Transcribed by Stephen Foy (shf@access.digex.net)
Z:abc 1.6
R:Jig
M:6/8
K:Am
A/G/|EAA ABc|BAA A2 (B/c/)|d2 e dBg|\
BGG G2 (A/G/)|EAA A2 A|BAA A2 (B/c/)|d2 e dBg|BAA A2:|
||e|a^ga a2 e|a^ga a2 e|=g>ag e>ge|dBG G2 e|\
a^ga a2 e|def g2 g|ege dBg|BAA A:|


